src/topics/icons/cirrus.svg

<svg height="199" preserveAspectRatio="xMidYMid" viewBox="0 0 256 199" width="256" xmlns="http://www.w3.org/2000/svg"><path d="m162.614136 141.314851h-69.2226325v-124.4015509h69.2226325z" fill="#2271ce"/><path d="m97.7828805 79.1166102c0 25.2354278 11.8154305 47.7144238 30.2151105 62.2007758-13.455206 10.593145-30.43643 16.915834-48.8914395 16.915834-43.6904362 0-79.10654978-35.421143-79.10654978-79.1166098 0-43.6954661 35.41611358-79.1166097 79.10654978-79.1166097 18.4550095 0 35.4362335 6.32268922 48.8914395 16.9158344-18.39968 14.4863524-30.2151105 36.9653483-30.2151105 62.2007753" fill="#005eb6" transform="matrix(1 0 0 -1 0 158.23322)"/><path d="m256.000004 79.1166102c0-43.6954661-35.416114-79.1166097-79.10655-79.1166097-18.455009 0-35.436233 6.32268922-48.891439 16.9158344 18.399679 14.4863524 30.215111 36.9653483 30.215111 62.2007753 0 25.2354278-11.815432 47.7144238-30.215111 62.2007758 13.455206 10.593145 30.43643 16.915834 48.891439 16.915834 43.690436 0 79.10655-35.421143 79.10655-79.1166098" fill="#0099df" transform="matrix(1 0 0 -1 0 158.23322)"/><path d="m181.70081 178.644159c-2.198102-1.448635-5.231182-2.198103-8.566061-2.198103-5.321722 0-8.747141 2.550202-8.747141 6.725087 0 3.42542 2.550201 5.532983 7.248206 6.196941l2.157863.306829c2.499902.352098 3.686978 1.011026 3.686978 2.193072 0 1.629715-1.669955 2.550201-4.788544 2.550201-3.16386 0-5.447473-1.011026-6.986647-2.198102l-2.152833 3.561228c2.504931 1.846004 5.668791 2.726251 9.094209 2.726251 6.066161 0 9.582119-2.857031 9.582119-6.855867 0-3.692008-2.766491-5.623521-7.338746-6.28748l-2.152833-.306828c-1.976783-.26156-3.561228-.658928-3.561228-2.062294 0-1.539175 1.493905-2.459661 3.998837-2.459661 2.680981 0 5.276452 1.011026 6.549038 1.800733zm-107.9241295 8.831645c0 6.372989 4.4364455 11.030753 11.2068035 11.030753 3.1638595 0 5.2714225-.704198 7.555035-2.504932l-2.198103-3.692007c-1.710194 1.232346-3.5109285 1.891274-5.492742 1.891274-3.646738-.045271-6.322689-2.680982-6.322689-6.725088 0-4.044107 2.675951-6.679818 6.322689-6.725088 1.9818135 0 3.782548.658927 5.492742 1.891273l2.198103-3.692007c-2.2836125-1.800734-4.3911755-2.504932-7.555035-2.504932-6.770358 0-11.2068035 4.657764-11.2068035 11.030754zm44.0546075-11.029265c-2.635711 0-4.350936 1.232346-5.538012 3.07835v-2.550202h-4.521955v21.005211h4.567225v-11.780221c0-3.470689 1.493905-5.402203 4.481715-5.402203.925517 0 1.891274.13078 2.85703.528149l1.403366-4.305666c-1.005997-.397369-2.328882-.573418-3.249369-.573418zm16.972371 0c-2.635711 0-4.350936 1.232346-5.538011 3.07835v-2.550202h-4.521956v21.005211h4.567225v-11.780221c0-3.470689 1.493906-5.402203 4.481715-5.402203.925518 0 1.891275.13078 2.857031.528149l1.403366-4.305666c-1.005997-.397369-2.328883-.573418-3.24937-.573418zm-32.019265 21.523822h-4.597405v-20.975031h4.597405zm-2.323852-31.457517c.452698 0 .875217.08048 1.272385.251499.39435.165789.734377.397168 1.026116.689108.289727.29174.523118.633778.689309 1.026117.173031.397167.249487.819887.249487 1.272586 0 .452698-.080479.875217-.249487 1.267556-.164984.397167-.398375.734377-.689309 1.021086-.289727.281679-.633778.508028-1.026116.663958-.398375.160959-.819687.241439-1.272385.241439-.452699 0-.8752175-.08048-1.267556-.241439-.398375-.155728-.7343775-.382279-1.021288-.663958-.281679-.286507-.5029985-.623717-.663958-1.021086-.1609595-.392339-.241439-.814858-.241439-1.267556 0-.452699.0804795-.875218.241439-1.272586.1609595-.392339.382279-.734377.663958-1.026117.285703-.291739.623718-.523118 1.021288-.689108.3943505-.171019.814857-.251499 1.267556-.251499zm60.261616 22.570542c0 1.664925-.276649 3.09344-.819888 4.290576-.548267 1.197136-1.267555 2.172953-2.162892 2.932481-.895337.759527-1.916424 1.317855-3.06829 1.674984-1.156896.357129-2.338942.538208-3.546138.538208-1.212226 0-2.394272-.181079-3.546139-.538208-1.156896-.357129-2.183012-.915457-3.08338-1.674984-.900366-.759528-1.619654-1.735345-2.162893-2.932481-.538207-1.197136-.809827-2.625651-.809827-4.290576v-12.08705h4.542075v11.669561c0 1.005998.13078 1.866125.387309 2.575352.261559.704198.618688 1.277616 1.071387 1.715224.452698.437609.990906.759528 1.609594.955698.618688.196168 1.282646.296769 1.991874.296769.704198 0 1.368155-.100601 1.986843-.296769.618688-.19617 1.156896-.518089 1.609595-.955698.457729-.437608.809827-1.011026 1.071386-1.715224.26156-.709227.387309-1.569354.387309-2.575352v-11.669561h4.542075z" fill="#231f20"/></svg>

<?xml version="1.0" encoding="UTF-8"?>
<svg width="256px" height="199px" viewBox="0 0 256 199" version="1.1" xmlns="http://www.w3.org/2000/svg" xmlns:xlink="http://www.w3.org/1999/xlink" preserveAspectRatio="xMidYMid">
	<g>
		<polygon fill="#2271CE" points="162.614136 141.314851 93.3915035 141.314851 93.3915035 16.9133001 162.614136 16.9133001"></polygon>
		<path d="M97.7828805,79.1166102 C97.7828805,104.352038 109.598311,126.831034 127.997991,141.317386 C114.542785,151.910531 97.561561,158.23322 79.1065515,158.23322 C35.4161153,158.23322 1.72181379e-06,122.812077 1.72181379e-06,79.1166102 C1.72181379e-06,35.4211441 35.4161153,4.99999999e-07 79.1065515,4.99999999e-07 C97.561561,4.99999999e-07 114.542785,6.32268972 127.997991,16.9158349 C109.598311,31.4021873 97.7828805,53.8811832 97.7828805,79.1166102" fill="#005EB6" transform="translate(63.998996, 79.116610) scale(1, -1) translate(-63.998996, -79.116610) "></path>
		<path d="M256.000004,79.1166102 C256.000004,35.4211441 220.58389,4.99999999e-07 176.893454,4.99999999e-07 C158.438445,4.99999999e-07 141.457221,6.32268972 128.002015,16.9158349 C146.401694,31.4021873 158.217126,53.8811832 158.217126,79.1166102 C158.217126,104.352038 146.401694,126.831034 128.002015,141.317386 C141.457221,151.910531 158.438445,158.23322 176.893454,158.23322 C220.58389,158.23322 256.000004,122.812077 256.000004,79.1166102" fill="#0099DF" transform="translate(192.001010, 79.116610) scale(1, -1) translate(-192.001010, -79.116610) "></path>
		<path d="M181.70081,178.644159 C179.502708,177.195524 176.469628,176.446056 173.134749,176.446056 C167.813027,176.446056 164.387608,178.996258 164.387608,183.171143 C164.387608,186.596563 166.937809,188.704126 171.635814,189.368084 L173.793677,189.674913 C176.293579,190.027011 177.480655,190.685939 177.480655,191.867985 C177.480655,193.4977 175.8107,194.418186 172.692111,194.418186 C169.528251,194.418186 167.244638,193.40716 165.705464,192.220084 L163.552631,195.781312 C166.057562,197.627316 169.221422,198.507563 172.64684,198.507563 C178.713001,198.507563 182.228959,195.650532 182.228959,191.651696 C182.228959,187.959688 179.462468,186.028175 174.890213,185.364216 L172.73738,185.057388 C170.760597,184.795828 169.176152,184.39846 169.176152,182.995094 C169.176152,181.455919 170.670057,180.535433 173.174989,180.535433 C175.85597,180.535433 178.451441,181.546459 179.724027,182.336166 L181.70081,178.644159 Z M73.7766805,187.475804 C73.7766805,193.848793 78.213126,198.506557 84.983484,198.506557 C88.1473435,198.506557 90.2549065,197.802359 92.538519,196.001625 L90.340416,192.309618 C88.630222,193.541964 86.8294875,194.200892 84.847674,194.200892 C81.200936,194.155621 78.524985,191.51991 78.524985,187.475804 C78.524985,183.431697 81.200936,180.795986 84.847674,180.750716 C86.8294875,180.750716 88.630222,181.409643 90.340416,182.641989 L92.538519,178.949982 C90.2549065,177.149248 88.1473435,176.44505 84.983484,176.44505 C78.213126,176.44505 73.7766805,181.102814 73.7766805,187.475804 Z M117.831288,176.446539 C115.195577,176.446539 113.480352,177.678885 112.293276,179.524889 L112.293276,176.974687 L107.771321,176.974687 L107.771321,197.979898 L112.338546,197.979898 L112.338546,186.199677 C112.338546,182.728988 113.832451,180.797474 116.820261,180.797474 C117.745778,180.797474 118.711535,180.928254 119.677291,181.325623 L121.080657,177.019957 C120.07466,176.622588 118.751775,176.446539 117.831288,176.446539 Z M134.803659,176.446539 C132.167948,176.446539 130.452723,177.678885 129.265648,179.524889 L129.265648,176.974687 L124.743692,176.974687 L124.743692,197.979898 L129.310917,197.979898 L129.310917,186.199677 C129.310917,182.728988 130.804823,180.797474 133.792632,180.797474 C134.71815,180.797474 135.683907,180.928254 136.649663,181.325623 L138.053029,177.019957 C137.047032,176.622588 135.724146,176.446539 134.803659,176.446539 Z M102.784394,197.970361 L98.186989,197.970361 L98.186989,176.99533 L102.784394,176.99533 L102.784394,197.970361 Z M100.460542,166.512844 C100.91324,166.512844 101.335759,166.593324 101.732927,166.764343 C102.127277,166.930132 102.467304,167.161511 102.759043,167.453451 C103.04877,167.745191 103.282161,168.087229 103.448352,168.479568 C103.621383,168.876735 103.697839,169.299455 103.697839,169.752154 C103.697839,170.204852 103.61736,170.627371 103.448352,171.01971 C103.283368,171.416877 103.049977,171.754087 102.759043,172.040796 C102.469316,172.322475 102.125265,172.548824 101.732927,172.704754 C101.334552,172.865713 100.91324,172.946193 100.460542,172.946193 C100.007843,172.946193 99.5853245,172.865713 99.192986,172.704754 C98.794611,172.549026 98.4586085,172.322475 98.171698,172.040796 C97.890019,171.754289 97.6686995,171.417079 97.50774,171.01971 C97.3467805,170.627371 97.266301,170.204852 97.266301,169.752154 C97.266301,169.299455 97.3467805,168.876936 97.50774,168.479568 C97.6686995,168.087229 97.890019,167.745191 98.171698,167.453451 C98.457401,167.161712 98.795416,166.930333 99.192986,166.764343 C99.5873365,166.593324 100.007843,166.512844 100.460542,166.512844 Z M160.722158,189.083386 C160.722158,190.748311 160.445509,192.176826 159.90227,193.373962 C159.354003,194.571098 158.634715,195.546915 157.739378,196.306443 C156.844041,197.06597 155.822954,197.624298 154.671088,197.981427 C153.514192,198.338556 152.332146,198.519635 151.12495,198.519635 C149.912724,198.519635 148.730678,198.338556 147.578811,197.981427 C146.421915,197.624298 145.395799,197.06597 144.495431,196.306443 C143.595065,195.546915 142.875777,194.571098 142.332538,193.373962 C141.794331,192.176826 141.522711,190.748311 141.522711,189.083386 L141.522711,176.996336 L146.064786,176.996336 L146.064786,188.665897 C146.064786,189.671895 146.195566,190.532022 146.452095,191.241249 C146.713654,191.945447 147.070783,192.518865 147.523482,192.956473 C147.97618,193.394082 148.514388,193.716001 149.133076,193.912171 C149.751764,194.108339 150.415722,194.20894 151.12495,194.20894 C151.829148,194.20894 152.493105,194.108339 153.111793,193.912171 C153.730481,193.716001 154.268689,193.394082 154.721388,192.956473 C155.179117,192.518865 155.531215,191.945447 155.792774,191.241249 C156.054334,190.532022 156.180083,189.671895 156.180083,188.665897 L156.180083,176.996336 L160.722158,176.996336 L160.722158,189.083386 Z" fill="#231F20"></path>
	</g>
</svg>
